X:1
T:Lord Randal
M:3/4
L:1/4
K:C
 G/2 G/4A/4| B A G| B d B/2d/2| B G A| G2 G/2 G/4A/4| B A G| B dB/2-d/2|\
 B G A| G2 g| e d g| e d e/2d/2| B G G| B2G/2-B/2| A G G| B d B/2d/2|\
 B G A| G3|
